icons/new/svg/pencil_flat_outlined.svg

<svg xmlns="http://www.w3.org/2000/svg" viewBox="0 0 24 24" baseProfile="tiny"><path fill="none" d="M0 0h24v24H0z"/><path d="M171.618 219.088l6.347-6.766h.418l5.282-5.282 11.295 11.295-12.048 12.047-13.919 5.048c-.389.233-1.78.714-2.214.803-.155.032-.37-.019-.466-.109-.08-.074-.133-.32-.11-.427.097-.436.546-1.935.765-2.345l4.65-14.264zm-3.989 14.158l.034.003.021.002.01.001c.3.034.577.153.809.346l.006.004c.268.205.464.518.55.973l.054.264c0-.821-.621-1.499-1.419-1.587l-.006-.001h-.004l-.012-.002h-.009l-.006-.001-.013-.001-.011-.001h-.004l-.036-.002.036.002zm-.044-.003l.007.001-.005-.001h-.002zm-.009 0h.006-.006zm-.009 0h.005-.005l-.004-.001.004.001zm-.013-.001h.004-.004zm-.01 0h.004-.004zm-.009 0h.003-.003zm-.01 0h.003-.003z" fill="#934e44" stroke="#d1924a" stroke-width="1.05" transform="matrix(.97349 0 0 .92457 -158.791 -196.422)"/><path d="M85.883 8.61l3.319 6.529c-2.416 6.108-4.998 6.657-7.797 0l3.062-6.547.163.245a.778.778 0 0 0 1.102 0l.151-.227z" fill="url(#_Linear2)" transform="scale(-1.87282 -1.7787) rotate(45 64.889 -107.5)"/><path d="M5.846 18.987c.244.178.425.45.502.845l.05.229s.038.339-.101.491l-.009.022c-.355.202-1.627.62-2.024.698-.141.027-.338-.018-.425-.095-.073-.064-.123-.279-.101-.371.088-.378.499-1.68.699-2.036.08-.143.5-.096.5-.096.339 0 .65.11.903.31l.006.003z" fill="#2a281d"/><path d="M4.776 18.98l-.227.576-.132.338-.13.337-.114.306-.049.134-.04.116-.033.095-.021.07-.007.024-.003.017-.001.001.003.002-.018.025-.002.001H3.993l-.004-.002-.003-.002-.002-.001-.003-.003-.002-.003-.001-.002-.001-.003-.001-.002V20.986l.003-.02.007-.026.02-.072.027-.097.037-.118.043-.137.1-.312.112-.343.112-.346.186-.589.105-.049.048.104zm-.758 2.013l-.001-.004L4 20.982l.017.011z" fill="#e4e3df"/><path d="M18.388 122.221l-.087-.086 1.351-6.656-.136.029-.007.007-6.469 1.358L19 110.52l5.354-4.96 10.606 10.606-11.314 11.314 1.42-6.587-6.678 1.328z" fill="url(#_Linear3)" transform="matrix(.97349 0 0 .92457 -4.007 -101.673)"/><defs><linearGradient id="_Linear2" x2="1" gradientUnits="userSpaceOnUse" gradientTransform="matrix(-7.3111 0 0 -7.3111 88.862 14.324)"><stop offset="0" stop-color="#fdf2d5"/><stop offset=".5" stop-color="#e4d2a8"/><stop offset="1" stop-color="#9d7827"/></linearGradient><linearGradient id="_Linear3" x2="1" gradientUnits="userSpaceOnUse" gradientTransform="rotate(45 -125.33 78.05) scale(14.06523)"><stop offset="0" stop-color="#fee577"/><stop offset="1" stop-color="#bf7439"/></linearGradient></defs></svg>

<?xml version="1.0"?>
<!-- Converted with SVG Converter - Version 0.9.6 (Compiled Fri Dec  1 22:15:06 2017) - Copyright (C) 2011 Nokia -->
<svg xmlns="http://www.w3.org/2000/svg" viewBox="0 0 24 24" width="100%" xml:space="preserve" version="1.1" xmlns:xlink="http://www.w3.org/1999/xlink" height="100%" baseProfile="tiny">
 <g transform="matrix(1,0,0,1,-167,-181)">
  <g transform="matrix(1,0,0,1,87,181)">
   <g id="flat_outlined">
    <rect style="fill:none;" width="24" id="pencil-flat_outline" y="0" x="80" height="24"/>
    <g>
     <g transform="matrix(0.973488,0,0,0.924567,-78.7913,-196.422)">
      <g id="outline">
       <path style="fill:rgb(147,78,68);stroke:rgb(209,146,74);stroke-width:1.05px;" d="M171.618,219.088L177.965,212.322L178.383,212.322L183.665,207.04L194.96,218.335L182.912,230.382C182.912,230.382 168.993,235.43 168.993,235.43C168.604,235.663 167.213,236.144 166.779,236.233C166.624,236.265 166.409,236.214 166.313,236.124C166.233,236.05 166.18,235.804 166.203,235.697C166.3,235.261 166.749,233.762 166.968,233.352L171.618,219.088ZM167.629,233.246L167.663,233.249L167.684,233.251L167.694,233.252C167.994,233.286 168.271,233.405 168.503,233.598L168.509,233.602C168.777,233.807 168.973,234.12 169.059,234.575L169.113,234.839C169.113,234.018 168.492,233.34 167.694,233.252L167.688,233.251L167.684,233.251L167.672,233.249L167.663,233.249L167.657,233.248L167.644,233.247L167.633,233.246L167.629,233.246C167.617,233.245 167.605,233.244 167.593,233.244L167.629,233.246ZM167.585,233.243L167.592,233.244L167.587,233.243L167.585,233.243ZM167.576,233.243L167.582,233.243L167.577,233.243L167.576,233.243ZM167.567,233.243L167.572,233.243L167.567,233.243L167.563,233.242L167.567,233.243ZM167.554,233.242L167.558,233.242L167.557,233.242L167.554,233.242ZM167.544,233.242L167.548,233.242L167.546,233.242L167.544,233.242ZM167.535,233.242L167.538,233.242L167.536,233.242L167.535,233.242ZM167.525,233.242L167.528,233.242L167.526,233.242L167.525,233.242Z"/>
      </g>
     </g>
     <g transform="matrix(1.00547,0,0,1.00547,-0.572294,-2.00726)">
      <g transform="matrix(-1.31708,-1.25089,1.31708,-1.25089,186.321,138.865)">
       <path style="fill:url(#_Linear2);" d="M85.883,8.61L89.202,15.139C86.786,21.247 84.204,21.796 81.405,15.139L84.467,8.592L84.63,8.837C84.934,9.142 85.428,9.142 85.732,8.837L85.883,8.61Z"/>
      </g>
      <g transform="matrix(0.968194,0,0,0.919539,2.56644,2.50413)">
       <path style="fill:rgb(42,40,29);" d="M86.121,19.984C86.372,20.176 86.557,20.47 86.637,20.898L86.688,21.145C86.688,21.145 86.727,21.512 86.584,21.677L86.575,21.7C86.21,21.919 84.904,22.37 84.496,22.455C84.351,22.484 84.149,22.436 84.059,22.352C83.984,22.283 83.933,22.051 83.955,21.951C84.046,21.542 84.468,20.134 84.673,19.749C84.755,19.595 85.188,19.645 85.188,19.645C85.535,19.645 85.854,19.764 86.115,19.98L86.121,19.984Z"/>
      </g>
      <g transform="matrix(0.968194,0,0,0.919539,2.56644,2.50413)">
       <path style="fill:rgb(228,227,223);" d="M85.022,19.977L84.789,20.599C84.789,20.599 84.653,20.965 84.653,20.965L84.52,21.329L84.402,21.66L84.352,21.805L84.31,21.931L84.277,22.033L84.255,22.109L84.248,22.135L84.245,22.153L84.244,22.155L84.247,22.157L84.229,22.184L84.227,22.185L84.223,22.185L84.22,22.185L84.217,22.184L84.213,22.183L84.21,22.181L84.21,22.181L84.208,22.179L84.205,22.176L84.203,22.173L84.202,22.171L84.201,22.168L84.201,22.168L84.2,22.165L84.199,22.162L84.199,22.159L84.2,22.146L84.203,22.124L84.21,22.096L84.23,22.018L84.259,21.913L84.297,21.786L84.341,21.638L84.444,21.3L84.558,20.929L84.673,20.555C84.673,20.555 84.865,19.918 84.865,19.918L84.972,19.865L85.022,19.977ZM84.243,22.154L84.242,22.149L84.226,22.142L84.243,22.154Z"/>
      </g>
      <g transform="matrix(0.968194,0,0,0.919539,76.1492,-99.1232)">
       <path style="fill:url(#_Linear3);" d="M18.388,122.221L18.301,122.135L19.652,115.479L19.516,115.508L19.509,115.515L13.04,116.873L19,110.52L24.354,105.56L34.96,116.166L23.646,127.48L25.066,120.893L18.388,122.221Z"/>
      </g>
     </g>
    </g>
   </g>
  </g>
 </g>
 <defs>
  <linearGradient x1="0" id="_Linear2" x2="1" gradientUnits="userSpaceOnUse" y2="0" y1="0" gradientTransform="matrix(-7.3111,-2.23821e-13,-2.25153e-13,-7.3111,88.8621,14.3241)">
   <stop style="stop-color:rgb(253,242,213);stop-opacity:1" offset="0.0"/>
   <stop style="stop-color:rgb(228,210,168);stop-opacity:1" offset="0.5"/>
   <stop style="stop-color:rgb(157,120,39);stop-opacity:1" offset="1.0"/>
  </linearGradient>
  <linearGradient x1="0" id="_Linear3" x2="1" gradientUnits="userSpaceOnUse" y2="0" y1="0" gradientTransform="matrix(9.94562,9.94562,-9.94562,9.94562,18.4821,111.482)">
   <stop style="stop-color:rgb(254,229,119);stop-opacity:1" offset="0.0"/>
   <stop style="stop-color:rgb(191,116,57);stop-opacity:1" offset="1.0"/>
  </linearGradient>
 </defs>
</svg>
